X: 91
T:Wyres Ned Puw
M:2/2
L:1/8
Q:150
C:Trad
S:Blodau'r Grug Collection Vol. 1
R:Set Dance
A:Wales
Z:brian_martin12345@yahoo.com
K:Am
A>^G A>B c2 c>d|e>c B>A B2E2|A>^G A>B c>B c>d|e>c d>f e4|!
c>B c>e d>c d>e|c>B c>d e2E2|A>^G A>B c>B c>d|e>c B>A A4:||

